X:35
T:Scotch Set Of Quadrilles No.5. Le4.035
B:L.Leadley MS#4 c1850
Z:Village Music Project, 2016 Steve Mansfield
M:2/4
L:1/8
Q:1/4=100
K:D
A | df f/e/d/c/ | Bg g/f/e/d/ | ca a/g/f/e/ | decA |
df f/e/d/c/ | Bg g/f/e/d/ | ca a/g/f/e/ |dfd ||
A | daga | Bbab | Aceg | f/e/d/c/ d2 |
da{f}ga | Bb{g}ab | Aceg | f/e/d/c/ d2 !segno! |]

